src/icons/package.svg

<svg width="16" height="16" xmlns="http://www.w3.org/2000/svg"><path fill-rule="evenodd" clip-rule="evenodd" d="M8.61 3l5.74 1.53L15 5v6.74l-.37.48-6.13 1.69-6.14-1.69-.36-.48V5l.61-.47L8.34 3h.27zm-.09 1l-4 1 .55.2 3.43.9 3-.81.95-.29-3.93-1zM3 11.36l5 1.37V7L3 5.66v5.7zM9 7v5.73l5-1.37V5.63l-2.02.553V8.75l-1 .26V6.457L9 7z"/></svg>

<svg width="16" height="16" viewBox="0 0 16 16" fill="none" xmlns="http://www.w3.org/2000/svg">
<path fill-rule="evenodd" clip-rule="evenodd" d="M8.61 3L14.35 4.53L15 5V11.74L14.63 12.22L8.5 13.91L2.36 12.22L2 11.74V5L2.61 4.53L8.34 3H8.61ZM8.52 4L4.52 5L5.07 5.2L8.5 6.1L11.5 5.29L12.45 5L8.52 4ZM3 11.36L8 12.73V7L3 5.66V11.36ZM9 7V12.73L14 11.36V5.63L11.98 6.18348V8.75001L10.98 9.01001V6.45748L9 7Z" fill="white"/>
</svg>
